X: 11
T: the Wanton Lass
%R: reel
B: Chas & Sam Thompson "Twenty Four Country Dances for the Year 1765", London 1765, p.6 #1
F: http://www.vwml.org/browse/browse-collections-dance-tune-books/browse-thompsons1765#
Z: 2014 John Chambers <jc:trillian.mit.edu> (added dance description)
M: C
L: 1/16
K: G
% - - - - - - - - - - - - - - - - - - - - - - - - - - - - -
|:\
g2G2g2g2 g2g2 g2fe | d2d2d2^d2 e2E2 E4 |\
c2e2 e2dc | B2d2 d2cB | {c}B2AG D2EF G4 [G4G,4] :|
|:\
B2d2d2d2 d2d2 d2cB | c2cd e2fg a2A2 A4 |\
gbag fagf egfe dedc | BdcB AcBA G4 [G4G,4] :|
% - - - - - - - - - - Dance description - - - - - - - - - -
%%begintext align
%% Gallop down one Cu: up again and cast off .|.
%% Gallop down another Cu: and up again and cast off
%% :|. lead up to the top and cast off .|: Right and left
%% at top :|:
%%endtext
